src/icons/svgs/16/github.svg

<svg width="16" height="16" viewBox="0 0 16 16" fill="none" xmlns="http://www.w3.org/2000/svg">
<path fill-rule="evenodd" clip-rule="evenodd" d="M7.94103 1C4.10655 1 0.969238 4.13731 0.969238 7.9718C0.969238 11.022 2.97363 13.6364 5.76235 14.595C6.11094 14.6821 6.19808 14.4207 6.19808 14.2464C6.19808 14.0721 6.19808 13.6364 6.19808 13.0263C4.28084 13.4621 3.8451 12.1549 3.8451 12.1549C3.49651 11.3705 3.06078 11.1091 3.06078 11.1091C2.45074 10.6734 3.14792 10.6734 3.14792 10.6734C3.8451 10.7605 4.19369 11.3705 4.19369 11.3705C4.80373 12.5035 5.8495 12.1549 6.19808 11.9806C6.28523 11.5448 6.45953 11.1963 6.63382 11.022C5.06517 10.8477 3.49651 10.2376 3.49651 7.53606C3.49651 6.75173 3.75796 6.1417 4.19369 5.70596C4.10655 5.53167 3.8451 4.83449 4.28084 3.87587C4.28084 3.87587 4.89087 3.70157 6.19808 4.57305C6.72097 4.39875 7.331 4.3116 7.94103 4.3116C8.55107 4.3116 9.1611 4.39875 9.68398 4.57305C10.9912 3.70157 11.6012 3.87587 11.6012 3.87587C11.9498 4.83449 11.7755 5.53167 11.6884 5.70596C12.1241 6.22885 12.3856 6.83888 12.3856 7.53606C12.3856 10.2376 10.7298 10.7605 9.1611 10.9348C9.42254 11.2834 9.68398 11.7191 9.68398 12.3292C9.68398 13.2878 9.68398 13.985 9.68398 14.2464C9.68398 14.4207 9.77113 14.6821 10.2069 14.595C12.9956 13.6364 15 11.022 15 7.9718C14.9128 4.13731 11.7755 1 7.94103 1Z" fill="black"/>
</svg>

<svg width="16" height="16" viewBox="0 0 16 16" xmlns="http://www.w3.org/2000/svg">
    <path fill-rule="evenodd" clip-rule="evenodd" d="M7.941 1C4.107 1 .969 4.137.969 7.972c0 3.05 2.005 5.664 4.793 6.623.349.087.436-.174.436-.349v-1.22c-1.917.436-2.353-.871-2.353-.871-.348-.784-.784-1.046-.784-1.046-.61-.436.087-.436.087-.436.697.088 1.046.697 1.046.697.61 1.134 1.655.785 2.004.61.087-.435.262-.784.436-.958-1.569-.174-3.137-.784-3.137-3.486 0-.784.261-1.394.697-1.83-.087-.174-.349-.872.087-1.83 0 0 .61-.174 1.917.697a5.619 5.619 0 0 1 1.743-.261c.61 0 1.22.087 1.743.261 1.307-.871 1.917-.697 1.917-.697.349.958.174 1.656.087 1.83.436.523.698 1.133.698 1.83 0 2.702-1.656 3.225-3.225 3.399.262.348.523.784.523 1.394v1.917c0 .175.087.436.523.349C12.996 13.636 15 11.022 15 7.972 14.913 4.137 11.775 1 7.941 1Z"/>
</svg>
